X:1
T:Title
%%score { ( 1 3 ) | 2 }
L:1/8
M:4/4
K:Eb
V:1 treble nm="Grand Piano"
V:3 treble 
V:2 bass 
V:1
 z4 z2[Q:1/4=100] B,>B, | E>E E>F G2 B2 | c2 B4 [FA]>[EG] | [DF]>[_D=E] [=DF]>[_EG] [FA]2 [DB]2 | %4
 G6 B,>B, | E>E E>F G2 B2 | c2 B4 [FA]>[EG] | [DF]>[_D=E] [=DF]>[_EG] [FA]2 D2 | E6 z2 | %9
 E>E E>E G>G F>E | B6 z2 | A6 z2 | G6 z2 | E>E E>E G>G F>E | B6 z2 | B6 z2 |[M:3/4] E6 |] %17
V:2
 z4 z2 [E,G,]>[E,G,] | [E,G,B,]>[E,G,B,] [E,G,B,]>[E,A,E] [E,B,E]2 [E,G,E]2 | %2
 [E,A,E]2 [E,G,E]4 [D,B,]>[D,B,] | [B,,B,]>[B,,B,] [B,,B,]>[B,,B,] [B,,B,]2 [B,,B,]2 | %4
 [E,B,E]6 [E,G,]>[E,G,] | [E,G,B,]>[E,G,B,] [E,G,B,]>[E,A,E] [E,B,E]2 [E,G,E]2 | %6
 [E,A,E]2 [E,G,E]4 [E,B,]>[E,B,] | [B,,B,]>[B,,B,] [B,,B,]>[B,,B,] [B,,B,]2 [B,,A,B,]2 | %8
 [E,G,B,]6 z2 | [E,G,B,]>[E,G,B,] [E,G,B,]>[E,G,B,] [E,B,E]>[E,B,E] [E,A,D]>[E,G,] | %10
 [E,G,E]2 [F,A,]>[F,A,] [E,G,]2 z2 | z2 B,,>B,, B,,2 z2 | z2 [E,G,]>[E,A,] [E,G,]2 z2 | %13
 [E,G,B,]>[E,G,B,] [E,G,B,]>[E,G,B,] [E,B,E]>[E,B,E] [E,A,D]>[E,G,] | %14
 [E,G,E]2 [F,A,]>[E,A,] [E,G,]2 z2 | z2 [B,,B,]>[B,,A,] [B,,G,]2 z2 | %16
[M:3/4] z2 [A,,A,]>[A,,A,] [E,G,]2 |] %17
V:3
 x8 | x8 | x8 | x8 | x8 | x8 | x8 | x8 | x8 | x8 | z2 D>D E2 c>G | z2 [DF]>[CE] [B,D]2 B>F | %12
 z2 E>C B,2 z2 | x8 | z2 D>D E2 e>c | z2 G>F E2 G>F |[M:3/4] z2 C>C B,2 |] %17

